X: 166
T: A Dram At The Wake
R: polka
M: 2/4
K: Dmajor
|:E|F>E DE|FA dB|AF DF|EF/E/ DE|
FF/E/ D>E|F/G/A d>B|AF EF/E/|D2- D:|
|:d/e/|f>e dB|Ad Fd|AF dF|E2- Ed/e/|
[1 f/g/f/e/ dB|AF d>E|Fd Ed|D2- D:|
[2 ff/e/ dB|A/B/A/F/ D>E|Fd Ed|D2- D||

